X:49
%%annotationfont Baskerville10Pro-Italic 11
%%pagewidth 7in
%%score 1 2
T:Staines Morris
M:4/4
L:1/8
K:G
V:1 clef-treble
V:2 clef-bass octave=-1
V:1
B2e2 "^a"^c2^d2 & G4 A2F2|e2(=d=c) (B2>c2) & E6 G2|(de) (dc)[GB]2 ([FA][EG]) & F6 x2|[^D(F]E) [D(F]G) E4|
w: Come, ye young men, come a* long,* With* your* mu-sic,* dance* and* song,
V:2
E4 A,2B,2|C2B,A, G,2E2|D4G2A2|B2B,2E4|
V:1
"^p"(GA) (Bc) [EB]2([FA][EG]) & E4 x4|([^DF]E) ([DF]G) E4 & x4 E2=DC|[B,(G]A) (Bc) [EB]2([FA][EG])|([^DF]E) ([DF]G) E4||
w:Bring* your* lass-es* in* your* hands, For* 'tis* that which* love* commands.**
V:2
E4 G2A2|B2B,2 C2 B,A,|E4 G2A2|B2B,2 E4||
V:1
"^f Repeat in Chorus."[B,G]2 [B,G]G D2D2|(EF) GA (B2>c2) & C2C2 D2G2|(de) dc [GB]2([FA][EG]) &F4x4|[^D(F]E) [D(F]G) E4 :||
w:Then to the Maypole* come* a* way,* For* it is now a* ho-*li-*day.
V:2
G,2G,2 B,2B,2|C2E2 G2E2|D4 G2A2| B2B,2 E4 :||


